X:8867
T:La Charge - bourree
Z:abc transcription Simon Wascher
N:please mail errors to: simon.wascher@chello.at
M:2/4
L:1/8
K:Dm
D3/2E/2 FE-|EG AG|D3/2E/2 FE-|E4|
D3/2E/2 FE-|EG AG|D3/2E/2 FG|1GA/2G/2 FE:|2GA/2G/2 FG||
|:A2 cB|BA GF|E3/2F/2 GA-|A4|
DF EG|AB/2A/2 GF|1E2 FG-|GE FG:|2E2 ED|D4|]



Xuacu Amieva 36
M:3/8
L:1/8
Q:3/8=69
K:Cm
|G>GG|A~GF|G3-|G3|G>GG|A~GF|GDE|FED|E~DC-|C3|
G>GG|A~GF|G3-|G3|G>GG|A~GF|GDE|FED|E~DC-|C2 G|
[K:C]
|: c3|A2 B|~AGE|A3|G2 A|~GFG|B3|A2 B|~AGE|
|A3|G2 A|~GFD|G3|F2 G|~F E2-|[1 E2 G :|[2 E3|



